public/calendar.svg

<svg width="28" height="28" viewBox="0 0 28 28" fill="none" xmlns="http://www.w3.org/2000/svg">
<path d="M9.33334 2.33334V5.83334" stroke="white" stroke-width="1.5" stroke-miterlimit="10" stroke-linecap="round" stroke-linejoin="round"/>
<path d="M18.6667 2.33334V5.83334" stroke="white" stroke-width="1.5" stroke-miterlimit="10" stroke-linecap="round" stroke-linejoin="round"/>
<path d="M4.08334 10.605H23.9167" stroke="white" stroke-width="1.5" stroke-miterlimit="10" stroke-linecap="round" stroke-linejoin="round"/>
<path d="M24.5 9.91668V19.8333C24.5 23.3333 22.75 25.6667 18.6667 25.6667H9.33333C5.25 25.6667 3.5 23.3333 3.5 19.8333V9.91668C3.5 6.41668 5.25 4.08334 9.33333 4.08334H18.6667C22.75 4.08334 24.5 6.41668 24.5 9.91668Z" stroke="white" stroke-width="1.5" stroke-miterlimit="10" stroke-linecap="round" stroke-linejoin="round"/>
<path d="M18.3105 15.9834H18.321" stroke="white" stroke-width="2" stroke-linecap="round" stroke-linejoin="round"/>
<path d="M18.3105 19.4834H18.321" stroke="white" stroke-width="2" stroke-linecap="round" stroke-linejoin="round"/>
<path d="M13.9947 15.9834H14.0052" stroke="white" stroke-width="2" stroke-linecap="round" stroke-linejoin="round"/>
<path d="M13.9947 19.4834H14.0052" stroke="white" stroke-width="2" stroke-linecap="round" stroke-linejoin="round"/>
<path d="M9.67669 15.9834H9.68717" stroke="white" stroke-width="2" stroke-linecap="round" stroke-linejoin="round"/>
<path d="M9.67669 19.4834H9.68717" stroke="white" stroke-width="2" stroke-linecap="round" stroke-linejoin="round"/>
</svg>

<svg width="28" height="28" fill="none" xmlns="http://www.w3.org/2000/svg"><path d="M9.333 2.333v3.5M18.667 2.333v3.5M4.083 10.605h19.834M24.5 9.917v9.916c0 3.5-1.75 5.834-5.833 5.834H9.333c-4.083 0-5.833-2.334-5.833-5.834V9.917c0-3.5 1.75-5.834 5.833-5.834h9.334c4.083 0 5.833 2.334 5.833 5.834Z" stroke="#fff" stroke-width="1.5" stroke-miterlimit="10" stroke-linecap="round" stroke-linejoin="round"/><path d="M18.31 15.983h.011M18.31 19.483h.011M13.995 15.983h.01M13.995 19.483h.01M9.677 15.983h.01M9.677 19.483h.01" stroke="#fff" stroke-width="2" stroke-linecap="round" stroke-linejoin="round"/></svg>
